icons/icn_area.svg

<svg width="24" xmlns="http://www.w3.org/2000/svg" height="24" id="screenshot-31fe8dfc-fa8e-809b-8006-931d23508da7" viewBox="0 0 24 24" xmlns:xlink="http://www.w3.org/1999/xlink" fill="none" version="1.1"><g id="shape-31fe8dfc-fa8e-809b-8006-931d23508da7"><g class="frame-container-wrapper"><g class="frame-container-blur"><g class="frame-container-shadows"><g fill="none"><g class="fills" id="fills-31fe8dfc-fa8e-809b-8006-931d23508da7"><rect rx="0" ry="0" x="0" y="0" width="24" height="24.000000000000455" transform="matrix(1, 0, 0, 1, 0, 0)" class="frame-background"/></g><g class="frame-children"><g id="shape-31fe8dfc-fa8e-809b-8006-931d63ad097d" rx="0" ry="0"><g id="shape-31fe8dfc-fa8e-809b-8006-931d2c026a90" style="opacity: 1;"><g class="fills" id="fills-31fe8dfc-fa8e-809b-8006-931d2c026a90"><path d="M2.99538254737854,3.282470703125C2.85402512550354,3.2760009765625,2.71486496925354,3.2982177734375,2.59108567237854,3.348876953125C2.26173996925354,3.483642578125,1.9931851625442505,3.8416748046875,1.9931851625442505,4.24169921875L1.9931851625442505,19.655517578125C1.9931851625442505,20.9630126953125,3.07008957862854,22.040283203125,4.377462387084961,22.040283203125L18.07961082458496,22.040283203125C18.73854637145996,22.040283203125,19.28859519958496,21.60986328125,19.51100730895996,21.0792236328125C19.73415184020996,20.5491943359375,19.64650535583496,19.85986328125,19.18507957458496,19.3897705078125L6.649435043334961,6.6204833984375C6.649435043334961,6.6195068359375,6.649435043334961,6.619140625,6.649435043334961,6.61865234375C6.617208480834961,6.564697265625,6.577657699584961,6.5157470703125,6.532247543334961,6.471923828125C6.493673324584961,6.43359375,6.450216293334961,6.3994140625,6.403097152709961,6.370361328125L3.64772629737854,3.5616455078125C3.47243332862854,3.383544921875,3.23048996925354,3.2930908203125,2.99538254737854,3.282470703125ZM3.49074387550354,5.5404052734375L4.933126449584961,7.0089111328125L4.473409652709961,7.468017578125C4.332296371459961,7.6087646484375,4.252950668334961,7.7996826171875,4.252950668334961,7.99951171875C4.252950668334961,8.1988525390625,4.332296371459961,8.3897705078125,4.473409652709961,8.530517578125C4.765890121459961,8.8193359375,5.236593246459961,8.8193359375,5.528097152709961,8.530517578125L5.983175277709961,8.079345703125L7.770772933959961,9.89990234375L6.000509262084961,11.6673583984375C5.859395980834961,11.80810546875,5.779073715209961,11.99951171875,5.779073715209961,12.1993408203125C5.779073715209961,12.3990478515625,5.859395980834961,12.591064453125,6.000509262084961,12.7318115234375C6.141866683959961,12.8734130859375,6.334005355834961,12.9532470703125,6.533224105834961,12.9532470703125C6.733419418334961,12.9532470703125,6.924581527709961,12.8734130859375,7.065694808959961,12.7318115234375L8.823507308959961,10.9720458984375L11.196798324584961,13.3878173828125L7.796407699584961,16.7608642578125C7.653585433959961,16.900634765625,7.572286605834961,17.0916748046875,7.570333480834961,17.29150390625C7.569601058959961,17.49169921875,7.647970199584961,17.68359375,7.788106918334961,17.8251953125C7.928487777709961,17.9674072265625,8.119405746459961,18.048095703125,8.318868637084961,18.049072265625C8.518087387084961,18.0504150390625,8.709981918334961,17.971923828125,8.851095199584961,17.8316650390625L12.249532699584961,14.46044921875L14.345235824584961,16.5970458984375L13.472188949584961,17.469970703125C13.331075668334961,17.6107177734375,13.251729965209961,17.80224609375,13.251729965209961,18.00146484375C13.251729965209961,18.2008056640625,13.331075668334961,18.391845703125,13.472188949584961,18.5325927734375C13.612569808959961,18.6737060546875,13.804464340209961,18.7530517578125,14.003683090209961,18.7530517578125C14.203145980834961,18.7530517578125,14.394063949584961,18.6737060546875,14.534444808959961,18.5325927734375L15.396261215209961,17.6656494140625L18.11452293395996,20.43701171875C18.15431785583496,20.4771728515625,18.14137840270996,20.4771728515625,18.13014793395996,20.50537109375C18.11818504333496,20.533447265625,18.13771629333496,20.534912109375,18.07961082458496,20.534912109375L4.377462387084961,20.534912109375C3.88112473487854,20.534912109375,3.49074387550354,20.15283203125,3.49074387550354,19.656005859375Z" style="display: inline; stroke-linecap: round; stroke-linejoin: round; fill: rgb(0, 0, 0); fill-opacity: 1;"/></g></g><g id="shape-31fe8dfc-fa8e-809b-8006-931d2c02cc3a" style="opacity: 1;"><g class="fills" id="fills-31fe8dfc-fa8e-809b-8006-931d2c02cc3a"><path d="M14.878438949584961,1.9127197265625C14.571310043334961,1.91357421875,14.287862777709961,2.0760498046875,14.132833480834961,2.3408203125L12.036397933959961,5.83984375C11.874044418334961,6.1129150390625,11.874044418334961,6.4525146484375,12.036397933959961,6.7257080078125L14.132833480834961,10.2247314453125C14.287862777709961,10.489013671875,14.571310043334961,10.65185546875,14.878438949584961,10.65283203125L19.07155418395996,10.65283203125C19.37526512145996,10.6495361328125,19.65578269958496,10.4871826171875,19.80983543395996,10.2247314453125L21.90627098083496,6.7257080078125C22.06862449645996,6.4525146484375,22.06862449645996,6.1129150390625,21.90627098083496,5.83984375L19.80983543395996,2.3408203125C19.65578269958496,2.0782470703125,19.37526512145996,1.9158935546875,19.07155418395996,1.9127197265625ZM15.365743637084961,3.6474609375L18.57692527770996,3.6474609375L20.14943504333496,6.28271484375L18.57692527770996,8.9180908203125L15.365743637084961,8.9180908203125L13.793478012084961,6.28271484375Z" style="display: inline; stroke-linecap: round; stroke-linejoin: round; fill: rgb(0, 0, 0); fill-opacity: 1;"/></g></g></g></g></g></g></g></g></g></svg>

<svg fill="none" viewBox="0 0 24 24"><g class="frame-container-wrapper"><g class="frame-container-blur"><g class="frame-container-shadows"><g class="fills"><rect width="24" height="24" class="frame-background" rx="0" ry="0"/></g><g class="frame-children"><path fill="#000" d="M2.9954 3.2825c-.1414-.0065-.2805.0157-.4043.0664-.3294.1347-.598.4928-.598.8928v15.4138c0 1.3075 1.077 2.3848 2.3844 2.3848h13.7021c.659 0 1.209-.4304 1.4314-.961.2232-.5301.1355-1.2194-.326-1.6895L6.6495 6.6205v-.0018a.7102.7102 0 0 0-.1172-.1468.718.718 0 0 0-.1291-.1015L3.6477 3.5616c-.1753-.178-.4172-.2685-.6523-.2791Zm.4953 2.258 1.4424 1.4684-.4597.4591a.7501.7501 0 0 0 0 1.0625c.2925.2888.7632.2888 1.0547 0l.455-.4512L7.7709 9.9l-1.7703 1.7675a.7522.7522 0 0 0-.2214.532c0 .1996.0803.3917.2214.5324a.7513.7513 0 0 0 1.0652 0l1.7578-1.7598 2.3733 2.4158-3.4004 3.373a.7529.7529 0 0 0-.226.5307.7545.7545 0 0 0 .2177.5337.7512.7512 0 0 0 .5308.2239.7485.7485 0 0 0 .5322-.2174l3.3984-3.3713 2.0957 2.1366-.873.873a.75.75 0 0 0 0 1.0626.7505.7505 0 0 0 .5315.2205.7484.7484 0 0 0 .5307-.2205l.8619-.867 2.7182 2.7714c.0398.0402.0269.0402.0156.0684-.012.028.0076.0295-.0505.0295H4.3775c-.4964 0-.8868-.382-.8868-.8789ZM14.8784 1.9127a.866.866 0 0 0-.7456.4281l-2.0964 3.499a.8665.8665 0 0 0 0 .886l2.0964 3.499a.8673.8673 0 0 0 .7456.428h4.1932a.8674.8674 0 0 0 .7382-.428l2.0965-3.499a.8665.8665 0 0 0 0-.886l-2.0965-3.499a.8668.8668 0 0 0-.7382-.428Zm.4873 1.7348h3.2112l1.5725 2.6352-1.5725 2.6354h-3.2112l-1.5722-2.6354Z" class="fills"/></g></g></g></g></svg>
